epam-assets/icon-sources/18/radar.svg

<svg width="18" height="18" viewBox="0 0 18 18" fill="none" xmlns="http://www.w3.org/2000/svg">
<g id="18/radar">
<path id="icon" fill-rule="evenodd" clip-rule="evenodd" d="M1.50089 8.88342C1.43689 13.0721 4.83279 16.5 9.01599 16.5C12.9138 16.5 16.1282 13.5238 16.4968 9.72915C16.5346 9.33893 16.2291 9 15.8362 9C15.4931 9 15.2096 9.26162 15.1763 9.60243C14.8564 12.8878 11.946 15.4275 8.51497 15.1566C5.56494 14.9238 3.16568 12.5932 2.86051 9.65603C2.49996 6.18551 5.03959 3.21243 8.35282 2.85871V4.3045C5.99264 4.64284 4.20026 6.7593 4.38724 9.24541C4.55757 11.5103 6.38992 13.3388 8.65964 13.5087C11.1171 13.6928 13.2144 11.9548 13.5963 9.64688C13.6622 9.24883 13.3441 8.88971 12.9398 8.88971H12.939C12.6155 8.88971 12.3396 9.12276 12.286 9.44107C12.0107 11.0713 10.5365 12.3008 8.80277 12.1919C7.15312 12.0882 5.81075 10.7487 5.70685 9.10258C5.60019 7.41178 6.77448 5.9684 8.35282 5.64739V7.25324C7.70468 7.51501 7.2475 8.14905 7.2475 8.8897C7.2475 9.86437 8.03922 10.6544 9.01597 10.6544C9.99271 10.6544 10.7844 9.86437 10.7844 8.8897C10.7844 8.14907 10.3273 7.51505 9.67917 7.25327V1.94118C9.67917 1.69754 9.48121 1.5 9.23705 1.5H9.13006C5.00555 1.5 1.56389 4.76824 1.50089 8.88342ZM12.774 7.12501C13.7508 7.12501 14.5425 6.33486 14.5425 5.3603C14.5425 4.38574 13.7508 3.59559 12.774 3.59559C11.7973 3.59559 11.0056 4.38574 11.0056 5.3603C11.0056 6.33486 11.7973 7.12501 12.774 7.12501Z" fill="#6C6F80"/>
</g>
</svg>

<svg xmlns="http://www.w3.org/2000/svg" width="18" height="18" fill="none" viewBox="0 0 18 18">
  <path fill="#6C6F80" fill-rule="evenodd" d="M1.5 8.883c-.063 4.19 3.333 7.617 7.516 7.617 3.898 0 7.112-2.976 7.48-6.77a.664.664 0 1 0-1.32-.128 6.193 6.193 0 0 1-6.661 5.555c-2.95-.233-5.35-2.564-5.654-5.501C2.5 6.186 5.04 3.212 8.353 2.859v1.446c-2.36.338-4.153 2.454-3.966 4.94.17 2.265 2.003 4.094 4.273 4.264a4.647 4.647 0 0 0 4.936-3.862.659.659 0 0 0-.656-.757h-.001c-.323 0-.6.233-.653.551a3.32 3.32 0 0 1-3.483 2.75 3.33 3.33 0 0 1-3.096-3.088 3.315 3.315 0 0 1 2.646-3.456v1.606a1.765 1.765 0 0 0 .663 3.401 1.765 1.765 0 0 0 .663-3.401V1.941a.442.442 0 0 0-.442-.441H9.13c-4.124 0-7.566 3.268-7.63 7.383Zm11.274-1.758c.977 0 1.769-.79 1.769-1.765 0-.974-.792-1.764-1.769-1.764-.977 0-1.768.79-1.768 1.764 0 .975.791 1.765 1.768 1.765Z" clip-rule="evenodd"/>
</svg>
